X:0675
T:John come Kiss me now
M:C
L:1/8
Q:1/2=104
I: :: ||
Z:Jack Campin * www.campin.me.uk * 2009
K:G
 D2       |G2G>A (G/A/B) TAG |c2 c>d Tc2      BA|G2 G>A TB>ABc              | d2  d>e  dDEF|
           G2G>A (G/A/B) TA>G|c2 cd  (c/d/e)  dc|B2 AG   FGAc               | B2(TA>G) G2 :|
 d2       |g2g>a  g=fed      |c2 cd   cde^f     |g>fga  (g/a/b)   ag        |Tf>e`de   fd
(e/g/f/a/)|g>fga  g=fed      |c>de>f (e/f/g) Tfe|d2 cB   A2     (Tf3/e//f//)| g2 (G>A) G2 |]


